build/svg/cmd/sc_addwatch.svg

<?xml version="1.0" encoding="UTF-8" standalone="no"?>
<svg
   xmlns:dc="http://purl.org/dc/elements/1.1/"
   xmlns:cc="http://creativecommons.org/ns#"
   xmlns:rdf="http://www.w3.org/1999/02/22-rdf-syntax-ns#"
   xmlns:svg="http://www.w3.org/2000/svg"
   xmlns="http://www.w3.org/2000/svg"
   xmlns:sodipodi="http://sodipodi.sourceforge.net/DTD/sodipodi-0.dtd"
   xmlns:inkscape="http://www.inkscape.org/namespaces/inkscape"
   viewBox="0 0 16 16"
   version="1.1"
   id="svg4"
   sodipodi:docname="sc_addwatch.svg"
   inkscape:version="0.92.4 (5da689c313, 2019-01-14)"
   inkscape:export-filename="/home/jupiter007/Libreoffice yaru theme fullcolor/build/cmd/sc_addwatch.png"
   inkscape:export-xdpi="96"
   inkscape:export-ydpi="96">
  <metadata
     id="metadata10">
    <rdf:RDF>
      <cc:Work
         rdf:about="">
        <dc:format>image/svg+xml</dc:format>
        <dc:type
           rdf:resource="http://purl.org/dc/dcmitype/StillImage" />
      </cc:Work>
    </rdf:RDF>
  </metadata>
  <defs
     id="defs8" />
  <sodipodi:namedview
     pagecolor="#ffffff"
     bordercolor="#666666"
     borderopacity="1"
     objecttolerance="10"
     gridtolerance="10"
     guidetolerance="10"
     inkscape:pageopacity="0"
     inkscape:pageshadow="2"
     inkscape:window-width="1920"
     inkscape:window-height="1011"
     id="namedview6"
     showgrid="true"
     inkscape:zoom="39.6875"
     inkscape:cx="1.1195791"
     inkscape:cy="8.0437445"
     inkscape:window-x="1920"
     inkscape:window-y="32"
     inkscape:window-maximized="1"
     inkscape:current-layer="svg4">
    <inkscape:grid
       type="xygrid"
       id="grid817" />
  </sodipodi:namedview>
  <path
     sodipodi:nodetypes="sssss"
     inkscape:connector-curvature="0"
     id="path839"
     d="m 8,3 c 3.865993,0 7,2.790861 7,5 0,2.209139 -3.134007,5 -7,5 C 4.1340068,13 1,10.209139 1,8 1,5.790861 4.1340068,3 8,3 Z"
     style="opacity:0.6;fill:#000000;fill-opacity:1;stroke:#000000;stroke-width:2;stroke-linecap:round;stroke-linejoin:round;stroke-miterlimit:4;stroke-dasharray:none;stroke-opacity:1" />
  <path
     style="opacity:1;fill:#ffffff;fill-opacity:1;stroke:none;stroke-width:2;stroke-linecap:round;stroke-linejoin:round;stroke-miterlimit:4;stroke-dasharray:none;stroke-opacity:1"
     d="m 8,3 c 3.865993,0 7,2.790861 7,5 0,2.209139 -3.134007,5 -7,5 C 4.1340068,13 1,10.209139 1,8 1,5.790861 4.1340068,3 8,3 Z"
     id="path826"
     inkscape:connector-curvature="0"
     sodipodi:nodetypes="sssss" />
  <path
     d="M 8,6 C 6.8954305,6 6,6.8954305 6,8 6,9.1045695 6.8954305,10 8,10 9.1045694,10 9.9999999,9.1045696 10,8 10.028959,7.8051063 10.028959,7.6070031 10,7.4121094 9.8259922,7.8011388 9.4245504,8.0371426 9,8 8.4477153,8 8,7.5522847 8,7 7.9631762,6.5749731 8.2000485,6.1733883 8.5898438,6 8.3943098,5.9708477 8.195534,5.9708477 8,6 Z"
     id="path2"
     inkscape:connector-curvature="0"
     style="fill:#232629"
     sodipodi:nodetypes="csscccccc" />
  <path
     style="opacity:1;fill:#232629;fill-opacity:1;stroke:none;stroke-width:2;stroke-linecap:round;stroke-linejoin:round;stroke-miterlimit:4;stroke-dasharray:none;stroke-opacity:1"
     d="M 8 4 A 4 4 0 0 0 4 8 A 4 4 0 0 0 8 12 A 4 4 0 0 0 12 8 A 4 4 0 0 0 8 4 z M 8 5 A 3 3 0 0 1 11 8 A 3 3 0 0 1 8 11 A 3 3 0 0 1 5 8 A 3 3 0 0 1 8 5 z "
     id="path833" />
</svg>

<svg xmlns="http://www.w3.org/2000/svg" viewBox="0 0 16 16"><path d="M8 3c3.866 0 7 2.79 7 5s-3.134 5-7 5-7-2.79-7-5 3.134-5 7-5z" opacity=".6" stroke="#000" stroke-width="2" stroke-linecap="round" stroke-linejoin="round"/><path d="M8 3c3.866 0 7 2.79 7 5s-3.134 5-7 5-7-2.79-7-5 3.134-5 7-5z" fill="#fff"/><path d="M8 6a2 2 0 102 2 2 2 0 000-.588A1 1 0 019 8a1 1 0 01-1-1 1 1 0 01.59-1A2 2 0 008 6z" fill="#232629"/><path d="M8 4a4 4 0 00-4 4 4 4 0 004 4 4 4 0 004-4 4 4 0 00-4-4zm0 1a3 3 0 013 3 3 3 0 01-3 3 3 3 0 01-3-3 3 3 0 013-3z" fill="#232629"/></svg>
